packages/web-icons/svgs/facebook_2.svg

<svg viewBox="0 0 23 48" xmlns="http://www.w3.org/2000/svg" class="ridi_icon"><path d="M15.3 48h-9V24h-6v-8.3h6v-4.9C6.3 4.1 8.1 0 16 0h6.6v8.3h-4.1c-3.1 0-3.2 1.2-3.2 3.3v4.1h7.4l-.9 8.3h-6.6l.1 24z"/></svg>

<?xml version="1.0" encoding="UTF-8"?>
<svg width="23px" height="48px" viewBox="0 0 23 48" version="1.1" xmlns="http://www.w3.org/2000/svg">
  <!-- Generator: Sketch 41.2 (35397) - http://www.bohemiancoding.com/sketch -->
  <title>facebook_2</title>
  <desc>Created with Sketch.</desc>
  <defs></defs>
  <g id="Page-1" stroke="none" stroke-width="1" fill="none" fill-rule="evenodd">
    <g id="facebook_2" fill="#000000">
      <g id="레이어_1">
        <path d="M15.3,48 L6.3,48 L6.3,24 L0.3,24 L0.3,15.7 L6.3,15.7 L6.3,10.8 C6.3,4.1 8.1,0 16,0 L22.6,0 L22.6,8.3 L18.5,8.3 C15.4,8.3 15.3,9.5 15.3,11.6 L15.3,15.7 L22.7,15.7 L21.8,24 L15.2,24 L15.3,48 L15.3,48 Z" id="Shape"></path>
      </g>
    </g>
  </g>
</svg>
